X:1
T:sample jig-like melody
C:Trad like.
M:6/8
K:D
Q:6/8=70
dff aff|aba f2d | Ace aec | d2ef3 |
dff aff| Ace aec| Bdg ddB | d2Bd3 |


